app/assets/images/icons/active/destination-flag.svg

<?xml version="1.0" encoding="UTF-8" standalone="no"?>
<svg width="32px" height="232px" viewBox="0 0 32 232" version="1.1" xmlns="http://www.w3.org/2000/svg" xmlns:xlink="http://www.w3.org/1999/xlink" xmlns:sketch="http://www.bohemiancoding.com/sketch/ns">
    <title>destination-flag</title>
    <description>Created with Sketch (http://www.bohemiancoding.com/sketch)</description>
    <defs></defs>
    <g id="Graphics" stroke="none" stroke-width="1" fill="none" fill-rule="evenodd" sketch:type="MSPage">
        <path d="M6.2477171,149 C5.55935542,149 5,148.432 5,147.731 L5,125.27 C5,124.568 5.55935542,124 6.2477171,124 C6.94001791,124 7.57914056,124.568 7.57914056,125.27 L7.57914056,147.731 C7.57914056,148.432 6.94001791,149 6.2477171,149 L6.2477171,149 L6.2477171,149 L6.2477171,149 Z M21.0066249,140.521 C18.2640107,140.521 15.2289167,138.547 12.7856759,138.547 L8.89874664,138.547 L8.89874664,124.752 L12.7856759,124.752 C15.2289167,124.752 18.2640107,126.725 21.0066249,126.725 C24.2357207,126.725 27,124.752 27,124.752 L27,138.547 C27,138.547 24.2357207,140.521 21.0066249,140.521 L21.0066249,140.521 Z M21.0066249,140.521" id="destination-flag--white" fill="#206FAC" sketch:type="MSShapeGroup"></path>
        <path d="M6.2477171,109 C5.55935542,109 5,108.432 5,107.731 L5,85.27 C5,84.568 5.55935542,84 6.2477171,84 C6.94001791,84 7.57914056,84.568 7.57914056,85.27 L7.57914056,107.731 C7.57914056,108.432 6.94001791,109 6.2477171,109 L6.2477171,109 L6.2477171,109 L6.2477171,109 Z M21.0066249,100.521 C18.2640107,100.521 15.2289167,98.547 12.7856759,98.547 L8.89874664,98.547 L8.89874664,84.752 L12.7856759,84.752 C15.2289167,84.752 18.2640107,86.725 21.0066249,86.725 C24.2357207,86.725 27,84.752 27,84.752 L27,98.547 C27,98.547 24.2357207,100.521 21.0066249,100.521 L21.0066249,100.521 Z M21.0066249,100.521" id="destination-flag--subdued-grey" fill="#FFFFFF" sketch:type="MSShapeGroup"></path>
        <path d="M6.2477171,69 C5.55935542,69 5,68.432 5,67.731 L5,45.27 C5,44.568 5.55935542,44 6.2477171,44 C6.94001791,44 7.57914056,44.568 7.57914056,45.27 L7.57914056,67.731 C7.57914056,68.432 6.94001791,69 6.2477171,69 L6.2477171,69 L6.2477171,69 L6.2477171,69 Z M21.0066249,60.521 C18.2640107,60.521 15.2289167,58.547 12.7856759,58.547 L8.89874664,58.547 L8.89874664,44.752 L12.7856759,44.752 C15.2289167,44.752 18.2640107,46.725 21.0066249,46.725 C24.2357207,46.725 27,44.752 27,44.752 L27,58.547 C27,58.547 24.2357207,60.521 21.0066249,60.521 L21.0066249,60.521 Z M21.0066249,60.521" id="destination-flag--body-grey" fill="#67737B" sketch:type="MSShapeGroup"></path>
        <path d="M6.2477171,29 C5.55935542,29 5,28.432 5,27.731 L5,5.27 C5,4.568 5.55935542,4 6.2477171,4 C6.94001791,4 7.57914056,4.568 7.57914056,5.27 L7.57914056,27.731 C7.57914056,28.432 6.94001791,29 6.2477171,29 L6.2477171,29 L6.2477171,29 L6.2477171,29 Z M21.0066249,20.521 C18.2640107,20.521 15.2289167,18.547 12.7856759,18.547 L8.89874664,18.547 L8.89874664,4.752 L12.7856759,4.752 C15.2289167,4.752 18.2640107,6.725 21.0066249,6.725 C24.2357207,6.725 27,4.752 27,4.752 L27,18.547 C27,18.547 24.2357207,20.521 21.0066249,20.521 L21.0066249,20.521 Z M21.0066249,20.521" id="destination-flag--title-grey" fill="#3A434E" sketch:type="MSShapeGroup"></path>
    </g>
</svg>

<svg width="32" height="232" viewBox="0 0 32 232" xmlns="http://www.w3.org/2000/svg" xmlns:sketch="http://www.bohemiancoding.com/sketch/ns"><title>destination-flag</title><g sketch:type="MSPage" fill="none"><path d="M6.248 149c-.688 0-1.248-.568-1.248-1.269v-22.461c0-.702.559-1.27 1.248-1.27.692 0 1.331.568 1.331 1.27v22.461c0 .701-.639 1.269-1.331 1.269zm14.759-8.479c-2.743 0-5.778-1.974-8.221-1.974h-3.887v-13.795h3.887c2.443 0 5.478 1.973 8.221 1.973 3.229 0 5.993-1.973 5.993-1.973v13.795s-2.764 1.974-5.993 1.974zm0 0" fill="#206FAC" sketch:type="MSShapeGroup"/><path d="M6.248 109c-.688 0-1.248-.568-1.248-1.269v-22.461c0-.702.559-1.27 1.248-1.27.692 0 1.331.568 1.331 1.27v22.461c0 .701-.639 1.269-1.331 1.269zm14.759-8.479c-2.743 0-5.778-1.974-8.221-1.974h-3.887v-13.795h3.887c2.443 0 5.478 1.973 8.221 1.973 3.229 0 5.993-1.973 5.993-1.973v13.795s-2.764 1.974-5.993 1.974zm0 0" fill="#fff" sketch:type="MSShapeGroup"/><path d="M6.248 69c-.688 0-1.248-.568-1.248-1.269v-22.461c0-.702.559-1.27 1.248-1.27.692 0 1.331.568 1.331 1.27v22.461c0 .701-.639 1.269-1.331 1.269zm14.759-8.479c-2.743 0-5.778-1.974-8.221-1.974h-3.887v-13.795h3.887c2.443 0 5.478 1.973 8.221 1.973 3.229 0 5.993-1.973 5.993-1.973v13.795s-2.764 1.974-5.993 1.974zm0 0" fill="#67737B" sketch:type="MSShapeGroup"/><path d="M6.248 29c-.688 0-1.248-.568-1.248-1.269v-22.461c0-.702.559-1.27 1.248-1.27.692 0 1.331.568 1.331 1.27v22.461c0 .701-.639 1.269-1.331 1.269zm14.759-8.479c-2.743 0-5.778-1.974-8.221-1.974h-3.887v-13.795h3.887c2.443 0 5.478 1.973 8.221 1.973 3.229 0 5.993-1.973 5.993-1.973v13.795s-2.764 1.974-5.993 1.974zm0 0" fill="#3A434E" sketch:type="MSShapeGroup"/></g></svg>
